!!!OTL: Tempus monet
**kern
*staff1
=1-
*clefF4
*k[b-]
*met(c|)
*M2/2
1G
1G
=2
1B-
1G
=3
2G\
2A\
2F\
2G\
=4
2D\
2D\
1G
!!linebreak:original
=5
2D\
2D\
2D\
2E\
=6
2F\
2G\
2F\
2BB-/
=7
1C
1F
!!linebreak:original
=8
2F\
2F\
2F\
2G\
=9
2A\
2F\
1G
=10
1D
0G
==
*-
!!title: @{OTL}, @{GTL}, ed. @{ENC}
!!!pag:
!!!GTL: Hymnbook D
!!!EFL: 
!!!YEM: Creative Commons CC/BY/NC/SA 4.0
!!!ENC: Marcin Konik
!!!END: 2015-0m-dd
!!!EED: Marcin Konik
!!!EEV: 
!!!ONB: Encoded in vim by Marcin Konik
!!!CharacterEncoding: utf-8
!!!RDF**kern: l=long note in original notation
!!!RDF**kern: i=editorial accidental
!!muse2ps: z14jc180F
!!!COM: Anonim
!!!CDT: [?]
!!!TXO: Polish
!!!ODT: 
!!!GTL: Hymnbook D
!!!ARL: Opactwo św. Wojciecha, Staniątki 
!!!voices:	1
